h3bpm/static/images/logoTab.svg

<?xml version="1.0" encoding="UTF-8"?>
<svg width="199px" height="33px" viewBox="0 0 199 33" version="1.1" xmlns="http://www.w3.org/2000/svg" xmlns:xlink="http://www.w3.org/1999/xlink">
    <!-- Generator: Sketch 44 (41411) - http://www.bohemiancoding.com/sketch -->
    <title>logo</title>
    <desc>Created with Sketch.</desc>
    <defs></defs>
    <g id="Page-1" stroke="none" stroke-width="1" fill="none" fill-rule="evenodd">
        <g id="1首页" transform="translate(-24.000000, -68.000000)">
            <g id="标题栏－右侧两个文案">
                <g id="logo" transform="translate(24.000000, 68.000000)">
                    <path d="M160.256773,10.4190921 C160.256773,8.67075457 159.73386,7.42929264 158.685832,6.69580102 C157.641106,5.96011988 156.071266,5.59118454 153.978512,5.59118454 C153.756136,5.59118454 153.471011,5.59884789 153.120935,5.61198505 C152.771959,5.62512222 152.416378,5.64044891 152.054192,5.65249131 C151.689804,5.66672323 151.349635,5.68204992 151.028181,5.69628185 C150.706727,5.70941901 150.448022,5.73021952 150.253168,5.75649385 L150.253168,15.6651993 C150.4194,15.6651993 150.679205,15.6717678 151.028181,15.684905 C151.377157,15.6991369 151.740444,15.7122741 152.11584,15.726506 C152.492338,15.7396432 152.854524,15.7549699 153.202399,15.768107 C153.552476,15.7812442 153.81118,15.7878128 153.978512,15.7878128 C156.238598,15.7878128 157.849171,15.3718026 158.812432,14.540877 C159.775693,13.7088567 160.256773,12.4586367 160.256773,10.7935012 L160.256773,10.4190921 Z M166.034139,10.7935012 C166.034139,12.6250407 165.706079,14.1664679 165.049961,15.4134036 C164.393842,16.6636237 163.515348,17.6686167 162.412277,18.4316669 C161.310306,19.1958119 160.034398,19.7366251 158.58235,20.0552013 C157.130303,20.3737775 155.597892,20.533613 153.978512,20.533613 C153.420371,20.533613 152.778564,20.5128125 152.054192,20.4712115 C151.327617,20.4296105 150.727643,20.3945781 150.253168,20.3683037 L150.253168,31.231643 C150.253168,31.4527853 150.178309,31.6487479 150.021986,31.815152 C149.868965,31.9804613 149.681817,32.0636634 149.457239,32.0636634 L145.272833,32.0636634 C145.049356,32.0636634 144.855603,31.9804613 144.684968,31.815152 C144.518737,31.6487479 144.435071,31.4527853 144.435071,31.231643 L144.435071,2.59481655 C144.435071,2.17661685 144.553965,1.87993591 144.790652,1.70039468 C145.029541,1.51866392 145.355398,1.40152422 145.77483,1.34678603 C146.86359,1.18038197 148.117481,1.04682081 149.543107,0.950481609 C150.965431,0.854142411 152.4439,0.804878049 153.978512,0.804878049 C155.597892,0.804878049 157.130303,0.955955427 158.58235,1.26248924 C160.034398,1.56792828 161.310306,2.09450958 162.412277,2.84332789 C163.515348,3.59324096 164.393842,4.58509679 165.049961,5.81999014 C165.706079,7.05707302 166.034139,8.58755254 166.034139,10.4190921 L166.034139,10.7935012 Z M198.733278,31.4396481 C198.733278,31.6607903 198.663923,31.8228154 198.525213,31.9191546 C198.384302,32.014399 198.21697,32.0636634 198.021015,32.0636634 L193.794775,32.0636634 C193.59882,32.0636634 193.439194,31.9804613 193.312594,31.815152 C193.185994,31.6487479 193.125446,31.4527853 193.125446,31.231643 L193.125446,11.8773172 C193.125446,11.5981525 193.083613,11.4591175 192.997745,11.4591175 C192.971325,11.4591175 192.900869,11.5423195 192.789681,11.7098183 L188.771506,19.6588969 C188.632796,19.8822287 188.443447,20.0552013 188.20786,20.1810991 C187.970072,20.3048074 187.711368,20.3683037 187.432848,20.3683037 L183.204407,20.3683037 C182.924786,20.3683037 182.667182,20.3048074 182.430495,20.1810991 C182.193808,20.0552013 182.004458,19.8822287 181.864648,19.6588969 L177.805741,11.7098183 C177.693452,11.5423195 177.624097,11.4591175 177.595474,11.4591175 C177.512909,11.4591175 177.469975,11.5981525 177.469975,11.8773172 L177.469975,31.231643 C177.469975,31.4527853 177.407226,31.6487479 177.282827,31.815152 C177.157328,31.9804613 176.996601,32.0636634 176.799545,32.0636634 L172.573306,32.0636634 C172.378452,32.0636634 172.208918,32.014399 172.070208,31.9191546 C171.9326,31.8228154 171.863245,31.6607903 171.863245,31.4396481 L171.863245,2.80282163 C171.863245,2.33097852 172.022871,1.93467409 172.343224,1.61609788 C172.664678,1.29642691 173.060991,1.13659142 173.536567,1.13659142 L176.969079,1.13659142 C177.302643,1.13659142 177.609786,1.2274568 177.889407,1.40918756 C178.169028,1.58872879 178.378193,1.82957679 178.516903,2.1361106 L184.836997,14.8714957 C184.949285,15.0663636 185.032952,15.2141567 185.087995,15.3115906 C185.144139,15.4068351 185.214595,15.4560994 185.29716,15.4560994 C185.380826,15.4560994 185.451282,15.4068351 185.506326,15.3115906 C185.56247,15.2141567 185.645035,15.0663636 185.758425,14.8714957 L192.076317,2.1361106 C192.217229,1.82957679 192.427495,1.58872879 192.707116,1.40918756 C192.985636,1.2274568 193.291678,1.13659142 193.626342,1.13659142 L197.059955,1.13659142 C197.532229,1.13659142 197.931844,1.29642691 198.252197,1.61609788 C198.572551,1.93467409 198.733278,2.33097852 198.733278,2.80282163 L198.733278,31.4396481 Z M132.916669,22.7822575 C132.916669,22.1987485 132.831902,21.6447981 132.66457,21.117122 C132.497238,20.589446 132.211011,20.1241714 131.805891,19.7223932 C131.401872,19.3217097 130.871253,18.9932806 130.215134,18.7436745 C129.560117,18.4940684 128.743271,18.3703601 127.765699,18.3703601 L122.4518,18.3703601 L122.4518,27.5280577 C122.954897,27.5280577 123.539459,27.5411949 124.209889,27.568564 C124.879218,27.5970278 125.437359,27.6090702 125.88211,27.6090702 C127.22297,27.6090702 128.339252,27.5280577 129.232057,27.3605589 C130.124863,27.1930601 130.843731,26.9303168 131.385359,26.5701396 C131.932491,26.2077728 132.322199,25.757825 132.559987,25.2170117 C132.797775,24.6751038 132.916669,24.0445199 132.916669,23.3219759 L132.916669,22.7822575 Z M132.748236,9.58707171 C132.748236,8.14526804 132.211011,7.11728501 131.135461,6.50640692 C130.061012,5.89552883 128.18513,5.59118454 125.506714,5.59118454 C125.005818,5.59118454 124.480703,5.59884789 123.936873,5.61198505 C123.393043,5.62512222 122.896551,5.64701749 122.4518,5.67438658 L122.4518,14.1248669 L127.765699,14.1248669 C128.743271,14.1248669 129.553511,14.0197696 130.194218,13.8128592 C130.836025,13.6037594 131.344627,13.3191209 131.722225,12.9589436 C132.099824,12.5976716 132.364032,12.1739981 132.517053,11.6890178 C132.671175,11.2040376 132.748236,10.6960672 132.748236,10.1683912 L132.748236,9.58707171 Z M138.607066,23.4073675 C138.607066,25.0714082 138.30873,26.4727056 137.708756,27.6090702 C137.108782,28.7476244 136.255607,29.6705101 135.154738,30.3788222 C134.052767,31.0860395 132.718512,31.5994836 131.157479,31.9191546 C129.594244,32.2377308 127.838356,32.3964715 125.88211,32.3964715 C124.181266,32.3964715 122.709403,32.3559652 121.467622,32.2716684 C120.225841,32.1884664 119.283496,32.0778953 118.641689,31.9388603 C117.943737,31.7998253 117.437337,31.5852517 117.115883,31.2929498 C116.794429,31.0028374 116.633702,30.467498 116.633702,29.6913106 L116.633702,3.46843791 C116.633702,2.72071436 116.780118,2.1842802 117.070747,1.86679875 C117.366881,1.54712778 117.846861,1.33145934 118.517291,1.22198298 C119.075432,1.13659142 119.968237,1.04682081 121.195707,0.950481609 C122.424278,0.854142411 123.859812,0.804878049 125.506714,0.804878049 C127.404613,0.804878049 129.141786,0.950481609 130.718232,1.24278349 C132.295778,1.53289585 133.654252,2.01130754 134.799157,2.67692382 C135.94296,3.34254009 136.82806,4.21068763 137.456657,5.27917692 C138.084152,6.3476662 138.399001,7.67233016 138.399001,9.25426358 L138.399001,10.0862839 C138.399001,11.4744442 138.077547,12.7290433 137.43574,13.8522707 C136.793933,14.976593 135.831773,15.8173714 134.548158,16.3713218 C135.831773,16.9252722 136.82806,17.7244496 137.540323,18.7655698 C138.251485,19.8045005 138.607066,21.117122 138.607066,22.6990554 L138.607066,23.4073675 Z M103.034656,23.4073675 C103.034656,24.9597423 102.76164,26.299733 102.217811,27.4240552 C101.673981,28.5472826 100.935297,29.4756422 100.000659,30.2113233 C99.0649192,30.9470045 97.957444,31.495481 96.671628,31.8556583 C95.3880136,32.2158355 94.0075228,32.3964715 92.5290545,32.3964715 C90.9669201,32.3964715 89.5357892,32.2979428 88.2367627,32.1052644 C86.9399379,31.9114912 85.6926523,31.6607903 84.4916032,31.3564461 C84.2703284,31.3006131 84.0809788,31.2108425 83.9257561,31.0860395 C83.7749369,30.9612364 83.697876,30.7860742 83.697876,30.564932 L83.697876,27.9856689 C83.697876,27.7634319 83.7672308,27.5817011 83.9070413,27.4426662 C84.0446501,27.3047259 84.2273945,27.2346611 84.4508711,27.2346611 L84.5345372,27.2346611 C86.2078594,27.4032547 87.7083451,27.5411949 89.0337925,27.6506712 C90.3603407,27.7634319 91.5250611,27.8181701 92.5290545,27.8181701 C94.2298985,27.8181701 95.4375528,27.452519 96.1498156,26.7157431 C96.8609776,25.980062 97.2154577,24.8765403 97.2154577,23.4073675 L97.2154577,22.5326514 C97.2154577,21.9776062 97.1670194,21.4488354 97.0712437,20.950718 C96.9721654,20.450411 96.7773115,20.005937 96.4844801,19.6172959 C96.1916487,19.2308443 95.7931338,18.9177419 95.2900362,18.681273 C94.7880395,18.4458988 94.1462324,18.3276644 93.3657156,18.3276644 L85.9590628,18.3276644 C85.4262418,18.3276644 85.1609321,18.0638263 85.1609321,17.5383398 L85.1609321,14.9141914 C85.1609321,14.3865154 85.4262418,14.1248669 85.9590628,14.1248669 L93.3657156,14.1248669 C94.1462324,14.1248669 94.7880395,14.0142957 95.2900362,13.7898692 C95.7931338,13.568727 96.1916487,13.2698565 96.4844801,12.8965421 C96.7773115,12.5221329 96.9721654,12.0897013 97.0712437,11.604721 C97.1670194,11.1197408 97.2154577,10.5997281 97.2154577,10.0457777 L97.2154577,9.38016139 C97.2154577,8.85139057 97.1527081,8.34342025 97.0283098,7.85953474 C96.9028106,7.37455446 96.6650227,6.95197571 96.316047,6.59179848 C95.9681721,6.22943173 95.4859911,5.93712984 94.8728065,5.71708236 C94.2585211,5.49375058 93.4769035,5.38208469 92.5290545,5.38208469 C91.7760595,5.38208469 91.1122349,5.39741139 90.5408834,5.42478048 C89.9684311,5.4510548 89.3893735,5.487182 88.8026098,5.52768825 C88.2180479,5.57038404 87.5894512,5.63278556 86.9212231,5.71708236 C86.2507934,5.79918963 85.4548644,5.88239166 84.5345372,5.96668846 L84.4508711,5.96668846 C84.2273945,5.96668846 84.0446501,5.89552883 83.9070413,5.75649385 C83.7672308,5.61855363 83.697876,5.4390124 83.697876,5.21787015 L83.697876,2.63641757 C83.697876,2.41418055 83.7749369,2.24011314 83.9257561,2.11531009 C84.0809788,1.9916018 84.2703284,1.90183118 84.4916032,1.84490348 C85.6926523,1.53946443 86.9399379,1.28985833 88.2367627,1.0949904 C89.5357892,0.903406774 90.9669201,0.804878049 92.5290545,0.804878049 C94.0361454,0.804878049 95.4309476,0.955955427 96.7145619,1.26248924 C97.9981762,1.56792828 99.1078531,2.06057191 100.041391,2.73823058 C100.976029,3.41917355 101.709209,4.30155301 102.239828,5.38208469 C102.770447,6.4648059 103.034656,7.79603845 103.034656,9.38016139 L103.034656,10.0457777 C103.034656,11.5160452 102.720908,12.7575071 102.093412,13.7712582 C101.465916,14.7828198 100.578615,15.5951344 99.4359123,16.2049177 C100.606137,16.8431649 101.500043,17.7244496 102.113228,18.8465823 C102.727513,19.9730941 103.034656,21.2014188 103.034656,22.5326514 L103.034656,23.4073675 Z M77.867669,31.231643 C77.867669,31.4527853 77.7851037,31.6487479 77.6177715,31.815152 C77.4493384,31.9804613 77.2544844,32.0636634 77.0310078,32.0636634 L72.8873335,32.0636634 C72.6649578,32.0636634 72.4701038,31.9804613 72.3016707,31.815152 C72.1354393,31.6487479 72.0506723,31.4527853 72.0506723,31.231643 L72.0506723,18.4940684 L60.163479,18.4940684 L60.163479,31.231643 C60.163479,31.4527853 60.0798129,31.6487479 59.9124807,31.815152 C59.7440476,31.9804613 59.5502945,32.0636634 59.325717,32.0636634 L55.1820427,32.0636634 C54.9596669,32.0636634 54.764813,31.9804613 54.5963799,31.815152 C54.4290476,31.6487479 54.3453815,31.4527853 54.3453815,31.231643 L54.3453815,1.92701075 C54.3453815,1.70696326 54.4290476,1.51866392 54.5963799,1.36430225 C54.764813,1.21431964 54.9596669,1.13659142 55.1820427,1.13659142 L59.325717,1.13659142 C59.5502945,1.13659142 59.7440476,1.21431964 59.9124807,1.36430225 C60.0798129,1.51866392 60.163479,1.70696326 60.163479,1.92701075 L60.163479,13.4165548 L72.0506723,13.4165548 L72.0506723,1.92701075 C72.0506723,1.70696326 72.1354393,1.51866392 72.3016707,1.36430225 C72.4701038,1.21431964 72.6649578,1.13659142 72.8873335,1.13659142 L77.0310078,1.13659142 C77.2544844,1.13659142 77.4493384,1.21431964 77.6177715,1.36430225 C77.7851037,1.51866392 77.867669,1.70696326 77.867669,1.92701075 L77.867669,31.231643 Z" id="Fill-1" fill="#77BCFA"></path>
                    <g id="Group-4" transform="translate(0.378567, 0.000000)">
                        <path d="M0.818129763,20.3218812 C0.36748411,20.3218812 0,19.9553179 0,19.5071719 L0,12.99285 C0,12.5441452 0.36748411,12.1786994 0.818129763,12.1786994 L7.36991069,12.1786994 C7.82055634,12.1786994 8.18804045,12.5441452 8.18804045,12.99285 L8.18860236,19.5071719 C8.18860236,19.9553179 7.82055634,20.3218812 7.36934879,20.3218812 L0.818129763,20.3218812 Z M25.3848921,20.3218812 C24.9342464,20.3218812 24.5662004,19.9553179 24.5662004,19.5071719 L24.5662004,12.99285 C24.5662004,12.5441452 24.9342464,12.1786994 25.3848921,12.1786994 L31.9355492,12.1786994 C32.3867567,12.1786994 32.7542409,12.5441452 32.7542409,12.99285 L32.7542409,19.5071719 C32.7542409,19.9553179 32.3867567,20.3218812 31.9355492,20.3218812 L25.3848921,20.3218812 Z M13.1014828,20.3218812 C12.6502753,20.3218812 12.2833531,19.9553179 12.2833531,19.5071719 L12.2833531,12.99285 C12.2833531,12.5441452 12.6502753,12.1786994 13.1014828,12.1786994 L19.6532637,12.1786994 C20.1033475,12.1786994 20.4702697,12.5441452 20.4702697,12.99285 L20.4702697,19.5071719 C20.4713935,19.9553179 20.1033475,20.3218812 19.6532637,20.3218812 L13.1014828,20.3218812 Z" id="Combined-Shape" fill="#D0E9FF"></path>
                        <path d="M25.3848921,8.14262303 C24.9342464,8.14262303 24.5662004,7.77717728 24.5662004,7.32847248 L24.5662004,0.81359176 C24.5662004,0.365445749 24.9342464,0 25.3848921,0 L31.9355492,0 C32.3867567,0 32.7542409,0.365445749 32.7542409,0.81359176 L32.7542409,7.32847248 C32.7542409,7.77717728 32.3867567,8.14262303 31.9355492,8.14262303 L25.3848921,8.14262303 Z M0.818129763,8.14262303 C0.36748411,8.14262303 0,7.77717728 0,7.32847248 L0,0.81359176 C0,0.365445749 0.36748411,0 0.818129763,0 L7.36991069,0 C7.82055634,0 8.18804045,0.365445749 8.18804045,0.81359176 L8.18860236,7.32847248 C8.18860236,7.77717728 7.82055634,8.14262303 7.36934879,8.14262303 L0.818129763,8.14262303 Z M0.818129763,32.5720008 C0.36748411,32.5720008 0,32.2065551 0,31.7572915 L0,25.2435284 C0,24.7942648 0.36748411,24.4293778 0.818129763,24.4293778 L7.36991069,24.4293778 C7.82055634,24.4293778 8.18804045,24.7942648 8.18804045,25.2435284 L8.18860236,31.7572915 C8.18860236,32.2065551 7.82055634,32.5720008 7.36934879,32.5720008 L0.818129763,32.5720008 Z M31.9355492,32.5720008 L25.3848921,32.5720008 C24.9342464,32.5720008 24.5662004,32.2065551 24.5662004,31.7572915 L24.5662004,25.2435284 C24.5662004,24.7942648 24.9342464,24.4293778 25.3848921,24.4293778 L31.9355492,24.4293778 C32.3867567,24.4293778 32.7542409,24.7942648 32.7542409,25.2435284 L32.7542409,31.7572915 C32.7542409,32.2065551 32.3867567,32.5720008 31.9355492,32.5720008 Z" id="Combined-Shape" fill="#77BCFA"></path>
                    </g>
                </g>
            </g>
        </g>
    </g>
</svg>

<svg width="199" height="33" xmlns="http://www.w3.org/2000/svg"><g fill="none" fill-rule="evenodd"><path d="M160.257 10.42c0-1.75-.523-2.99-1.571-3.724-1.045-.736-2.615-1.105-4.707-1.105-.223 0-.508.008-.858.021-.349.013-.705.028-1.067.04l-1.026.044a8.67 8.67 0 0 0-.775.06v9.91c.166 0 .426.006.775.019l1.088.042c.376.013.739.028 1.086.041.35.013.61.02.777.02 2.26 0 3.87-.416 4.833-1.247.964-.832 1.445-2.082 1.445-3.747v-.375zm5.777.374c0 1.831-.328 3.372-.984 4.62-.656 1.25-1.535 2.255-2.638 3.018-1.102.764-2.378 1.305-3.83 1.623a21.424 21.424 0 0 1-4.603.479c-.559 0-1.2-.021-1.925-.063l-1.8-.103v10.864a.824.824 0 0 1-.232.583.738.738 0 0 1-.565.249h-4.184a.818.818 0 0 1-.588-.249.803.803 0 0 1-.25-.583V2.595c0-.418.119-.715.356-.895.239-.181.564-.298.984-.353 1.089-.167 2.342-.3 3.768-.397 1.422-.096 2.9-.145 4.436-.145 1.619 0 3.151.151 4.603.457 1.452.306 2.728.833 3.83 1.581 1.103.75 1.982 1.742 2.638 2.977.656 1.237.984 2.768.984 4.6v.374zm32.7 20.646c0 .22-.07.383-.209.48a.878.878 0 0 1-.504.144h-4.226a.582.582 0 0 1-.482-.249.937.937 0 0 1-.188-.583V11.877c0-.279-.041-.418-.127-.418-.027 0-.097.083-.208.25l-4.018 7.95a1.459 1.459 0 0 1-.564.522 1.656 1.656 0 0 1-.775.187h-4.229c-.28 0-.537-.063-.774-.187a1.465 1.465 0 0 1-.565-.522l-4.06-7.95c-.112-.167-.18-.25-.21-.25-.082 0-.125.14-.125.418v19.355a.951.951 0 0 1-.187.583.581.581 0 0 1-.483.249h-4.227a.872.872 0 0 1-.503-.145c-.137-.096-.207-.258-.207-.48V2.804c0-.472.16-.868.48-1.187.322-.32.718-.48 1.194-.48h3.432c.334 0 .64.091.92.273.28.18.49.42.628.727l6.32 12.735.251.44c.056.096.127.145.21.145.083 0 .153-.05.208-.144.056-.098.139-.246.252-.44l6.318-12.736c.141-.306.351-.547.631-.727.279-.182.585-.272.92-.272h3.433c.472 0 .872.16 1.192.48.32.318.481.714.481 1.186V31.44zm-65.817-8.658c0-.583-.085-1.137-.252-1.665a3.38 3.38 0 0 0-.86-1.395c-.403-.4-.934-.729-1.59-.978-.655-.25-1.472-.374-2.45-.374h-5.313v9.158c.503 0 1.087.013 1.758.04.67.029 1.227.041 1.672.041 1.341 0 2.457-.08 3.35-.248.893-.168 1.612-.43 2.153-.79.547-.363.937-.813 1.175-1.354.238-.542.357-1.172.357-1.895v-.54zm-.169-13.195c0-1.442-.537-2.47-1.613-3.08-1.074-.611-2.95-.916-5.628-.916-.501 0-1.026.008-1.57.021-.544.013-1.04.035-1.485.062v8.45h5.314c.977 0 1.788-.104 2.428-.311.642-.21 1.15-.494 1.528-.854a2.97 2.97 0 0 0 .795-1.27c.154-.485.231-.993.231-1.52v-.582zm5.86 13.82c0 1.664-.3 3.066-.9 4.202a7.294 7.294 0 0 1-2.553 2.77c-1.102.707-2.436 1.22-3.998 1.54-1.563.319-3.319.477-5.275.477-1.7 0-3.173-.04-4.414-.124-1.242-.084-2.185-.194-2.826-.333-.698-.14-1.205-.354-1.526-.646-.322-.29-.482-.826-.482-1.602V3.468c0-.747.146-1.284.437-1.601.296-.32.776-.536 1.446-.645.558-.085 1.451-.175 2.679-.272a55.903 55.903 0 0 1 4.31-.145c1.899 0 3.636.145 5.212.438 1.578.29 2.936.768 4.081 1.434 1.144.666 2.03 1.534 2.658 2.602.627 1.069.942 2.393.942 3.975v.832c0 1.388-.321 2.643-.963 3.766-.642 1.125-1.604 1.965-2.888 2.52 1.284.553 2.28 1.352 2.992 2.394.711 1.039 1.067 2.351 1.067 3.933v.708zm-35.573 0c0 1.553-.273 2.893-.817 4.017A7.83 7.83 0 0 1 100 30.211c-.936.736-2.044 1.284-3.33 1.645-1.283.36-2.663.54-4.142.54-1.562 0-2.993-.098-4.292-.29a38.241 38.241 0 0 1-3.745-.75 1.46 1.46 0 0 1-.566-.27.642.642 0 0 1-.228-.521v-2.58c0-.222.07-.403.209-.542a.737.737 0 0 1 .544-.208h.084c1.673.168 3.173.306 4.499.416 1.326.112 2.491.167 3.495.167 1.7 0 2.909-.365 3.62-1.102.712-.736 1.066-1.84 1.066-3.309v-.874a8.38 8.38 0 0 0-.144-1.582c-.099-.5-.294-.945-.587-1.334-.292-.386-.69-.7-1.194-.936-.502-.235-1.144-.353-1.924-.353h-7.407c-.533 0-.798-.264-.798-.79v-2.624c0-.527.265-.79.798-.79h7.407c.78 0 1.422-.11 1.924-.334.503-.221.902-.52 1.194-.893.293-.375.488-.807.587-1.292a8.045 8.045 0 0 0 .144-1.56V9.38a6.09 6.09 0 0 0-.187-1.52 2.802 2.802 0 0 0-.712-1.268c-.348-.363-.83-.655-1.443-.875-.614-.223-1.396-.335-2.344-.335-.753 0-1.417.015-1.988.043-.573.026-1.152.062-1.738.103-.585.042-1.214.105-1.882.19-.67.081-1.466.164-2.386.249h-.084a.735.735 0 0 1-.544-.21.723.723 0 0 1-.21-.54v-2.58a.64.64 0 0 1 .229-.522c.155-.123.344-.213.566-.27a38.24 38.24 0 0 1 3.745-.75c1.299-.192 2.73-.29 4.292-.29 1.507 0 2.902.151 4.186.457 1.283.306 2.393.799 3.326 1.476a7.067 7.067 0 0 1 2.199 2.644c.53 1.083.795 2.414.795 3.998v.666c0 1.47-.314 2.712-.942 3.725-.627 1.012-1.514 1.824-2.657 2.434 1.17.638 2.064 1.52 2.677 2.642a7.574 7.574 0 0 1 .922 3.686v.874zm-25.167 7.825a.799.799 0 0 1-.25.583.812.812 0 0 1-.587.249h-4.144a.811.811 0 0 1-.585-.249.804.804 0 0 1-.251-.583V18.494H60.163v12.738a.8.8 0 0 1-.25.583.81.81 0 0 1-.587.249h-4.144a.811.811 0 0 1-.586-.249.8.8 0 0 1-.25-.583V1.927c0-.22.083-.408.25-.563a.856.856 0 0 1 .586-.227h4.144c.224 0 .418.077.586.227a.738.738 0 0 1 .251.563v11.49h11.888V1.927c0-.22.084-.408.25-.563a.856.856 0 0 1 .586-.227h4.144c.223 0 .418.077.587.227.167.155.25.343.25.563v29.305z" fill="#51BC01"/><path d="M1.197 20.322a.818.818 0 0 1-.818-.815v-6.514c0-.449.367-.814.818-.814h6.551c.451 0 .819.365.819.814v6.514a.819.819 0 0 1-.82.815h-6.55zm24.566 0a.819.819 0 0 1-.818-.815v-6.514c0-.449.368-.814.818-.814h6.551c.451 0 .819.365.819.814v6.514a.818.818 0 0 1-.819.815h-6.55zm-12.283 0a.818.818 0 0 1-.818-.815v-6.514c0-.449.367-.814.818-.814h6.552c.45 0 .817.365.817.814v6.514a.817.817 0 0 1-.817.815H13.48z" fill="#8ED647"/><path d="M25.763 8.143a.818.818 0 0 1-.818-.815V.814c0-.449.368-.814.818-.814h6.551c.451 0 .819.365.819.814v6.514a.818.818 0 0 1-.819.815h-6.55zm-24.566 0a.818.818 0 0 1-.818-.815V.814C.379.365.746 0 1.197 0h6.551c.451 0 .819.365.819.814v6.514a.818.818 0 0 1-.82.815h-6.55zm0 24.429a.818.818 0 0 1-.818-.815v-6.513c0-.45.367-.815.818-.815h6.551c.451 0 .819.365.819.815v6.513c0 .45-.368.815-.82.815h-6.55zm31.117 0h-6.55a.818.818 0 0 1-.82-.815v-6.513c0-.45.369-.815.82-.815h6.55c.451 0 .819.365.819.815v6.513c0 .45-.368.815-.819.815z" fill="#51BC01"/></g></svg>
